X: 34111
T: Reel Des Ti-Minous
R: reel
M: 4/4
K: Gmajor
(3def|:"G"g2B2 d2G2|B2D2 G3B|"D"A2FA DFAF|"G"GABc "D"ddef:|
"G"g2B2 d2G2|B2D2 G3B|"D"A2FA DFAF|1 "G"GBAF G2 (3def:|2 "G"GBAF G2A2||
|:"G"BdBA GFGB|ed^ce d2B2|"D"ABAG FDFA|d^cde d2cd|
"G"BdBA G2gf|"C"edef e2d2|"D7"d2fe dcBA|1 "G"GgdB G2A2:|2 "G"GgdB G2 (3def||

